X:38
T:Romp. THO5.038, The
M:C|
L:1/8
B:Thompson's Complete Collection of 200 Favourite Dances Vol.5
F:https://www.libraryofdance.org/manuals/1780c-Thompson-Compleat-5.pdf
Z:vmp. Peter Dunk 2024
Q:1/4=160
K:D
d4 A2 Bc|B2B2 A4|d2 fd B2 cd|efge dcBA|
d4 A2 Bc|B2B2 A4|d2 fd Bege|d2c2 d4:|
|:Adfd Bege|ceae|dgbg|gfed c2d2|edcB A4|
Adfd Bege|ceaf|dgbg|gfed A2c2|d4 D4:|
W:
W:The 1st 2nd & 3rd Gents take hands and go round their Partners ./.
W:the Ladies do the same ./:
W:the 1st Couple: go round with the Allemand until they
W:come in their places again, the 2nd & 3rd Couples follow :/.
W:cross ove right and left :/:

